X:113
T: WER EINE GANS GESTOHLEN HAT
N: K2163
O: Europa, Mitteleuropa, Deutschland, Berlin
R: Kinder - Lied, Reigen,  Tanz - Spiel
M: 2/4
L: 1/8
K: Bb
F | BBBB | BGF
F | G2A2 | B2z
F | BBBB | BGF
F | G2A2 | B2z
f | dBcA | B2z

